src/assets/bold/lm-globe-arrow-up-bold.svg

<svg width="24" height="24" viewBox="0 0 24 24" fill="none" xmlns="http://www.w3.org/2000/svg" fill="currentColor">
<path d="M12.6792 2.42416C12.5838 2.3992 12.4835 2.39327 12.3845 2.4078C12.1485 2.39834 11.9121 2.39758 11.6756 2.40557C11.5919 2.39521 11.5075 2.39939 11.4262 2.41725C10.9915 2.44328 10.5575 2.49894 10.1271 2.58456C8.26488 2.95497 6.55434 3.86927 5.21177 5.21184C3.8692 6.55441 2.9549 8.26495 2.58449 10.1272C2.21407 11.9893 2.40418 13.9196 3.13078 15.6737C3.85737 17.4279 5.08782 18.9272 6.66651 19.982C8.08576 20.9303 9.72917 21.4812 11.4262 21.5827C11.5076 21.6006 11.5919 21.6048 11.6756 21.5944C11.7836 21.5981 11.8917 21.5999 11.9999 21.5999C12.4078 21.5999 12.7384 21.2693 12.7384 20.8614C12.7384 20.4537 12.4079 20.1231 12.0001 20.123C11.1841 18.7383 10.5847 17.2441 10.2166 15.6923H11.9999C12.4078 15.6923 12.7384 15.3616 12.7384 14.9538C12.7384 14.546 12.4078 14.2154 11.9999 14.2154H9.93888C9.83663 13.484 9.78477 12.7439 9.78477 12C9.78477 11.2561 9.83663 10.516 9.93888 9.78463H14.0736C14.1688 10.5184 14.2153 11.2586 14.2153 12C14.2153 12.4078 14.5459 12.7384 14.9537 12.7384C15.3616 12.7384 15.6922 12.4078 15.6922 12C15.6922 11.2606 15.6495 10.5206 15.5618 9.78463H19.815C20.0182 10.5015 20.1229 11.2468 20.1229 12C20.1229 12.4078 20.4535 12.7385 20.8614 12.7385C21.2692 12.7385 21.5998 12.4078 21.5998 12C21.5998 10.1013 21.0368 8.24527 19.982 6.66658C18.9271 5.08788 17.4278 3.85744 15.6737 3.13085C14.7148 2.73369 13.7034 2.49682 12.6792 2.42416ZM19.2353 8.30772H15.3237C15.0284 6.86332 14.551 5.44727 13.8748 4.09633C14.2942 4.19582 14.7068 4.32895 15.1085 4.49533C16.5927 5.11014 17.8614 6.15129 18.754 7.48711C18.9309 7.75194 19.0915 8.02599 19.2353 8.30772ZM13.8134 8.30772H10.2166C10.5847 6.7559 11.1841 5.2617 12.0001 3.877C12.0255 3.877 12.0509 3.87712 12.0763 3.87736C12.8965 5.27487 13.4686 6.76863 13.8134 8.30772ZM8.70234 8.30772H4.76459C5.14921 7.55404 5.6513 6.86098 6.25611 6.25617C7.34185 5.17043 8.712 4.41571 10.2068 4.0774C9.52414 5.4196 9.01922 6.84175 8.70234 8.30772ZM4.18486 9.78463H8.44884C8.35527 10.5168 8.30787 11.2567 8.30787 12C8.30787 12.7433 8.35527 13.4831 8.44884 14.2154H4.18486C3.83547 12.9828 3.78135 11.6805 4.03302 10.4153C4.07533 10.2026 4.12602 9.99221 4.18486 9.78463ZM8.70234 15.6923C9.01922 17.1582 9.52414 18.5804 10.2068 19.9226C9.24118 19.704 8.31864 19.3097 7.48704 18.754C6.32992 17.9809 5.39391 16.9255 4.76458 15.6923H8.70234ZM17.3854 13.447C17.6738 13.1587 18.1413 13.1587 18.4297 13.447L21.3835 16.4009C21.6719 16.6892 21.6719 17.1568 21.3835 17.4452C21.0952 17.7336 20.6276 17.7336 20.3392 17.4452L18.646 15.752V20.8614C18.646 21.2693 18.3154 21.5999 17.9076 21.5999C17.4997 21.5999 17.1691 21.2693 17.1691 20.8614V15.752L15.4759 17.4452C15.1875 17.7336 14.72 17.7336 14.4316 17.4452C14.1432 17.1568 14.1432 16.6892 14.4316 16.4009L17.3854 13.447Z" fill="black"/>
</svg>

<svg xmlns="http://www.w3.org/2000/svg" width="24" height="24" fill="currentColor" viewBox="0 0 24 24">
  <path d="M12.68 2.424a.74.74 0 0 0-.296-.016 9.602 9.602 0 0 0-.708-.002.74.74 0 0 0-.25.011 9.598 9.598 0 0 0-8.295 13.257 9.6 9.6 0 0 0 8.295 5.909.738.738 0 0 0 .25.011c.108.004.216.006.324.006a.738.738 0 0 0 0-1.477 16 16 0 0 1-1.783-4.43H12a.739.739 0 0 0 0-1.478H9.939a16 16 0 0 1 0-4.43h4.135c.095.733.141 1.474.141 2.215a.738.738 0 0 0 1.477 0c0-.74-.043-1.48-.13-2.215h4.253c.203.716.308 1.462.308 2.215a.739.739 0 0 0 1.477 0 9.6 9.6 0 0 0-8.92-9.576Zm6.555 5.884h-3.911a17 17 0 0 0-1.45-4.212 8.124 8.124 0 0 1 5.361 4.212Zm-5.422 0h-3.596A16 16 0 0 1 12 3.877h.076a15.364 15.364 0 0 1 1.737 4.43Zm-5.11 0H4.764a8.123 8.123 0 0 1 5.442-4.23 17.476 17.476 0 0 0-1.505 4.23ZM4.184 9.785h4.264a17.476 17.476 0 0 0 0 4.43H4.185a8.123 8.123 0 0 1 0-4.43Zm4.517 5.907a17.477 17.477 0 0 0 1.505 4.23 8.123 8.123 0 0 1-5.442-4.23h3.937Zm8.683-2.245a.739.739 0 0 1 1.045 0l2.954 2.954a.738.738 0 1 1-1.045 1.044l-1.693-1.693v5.11a.738.738 0 1 1-1.477 0v-5.11l-1.693 1.693a.738.738 0 1 1-1.044-1.044l2.953-2.954Z"/>
</svg>
